X: 55
T:Mairs Hornpipe. GHW.055
T:
M:2/4
L:1/8
Q:360
S:George H.Watson,MS,Swanton Abbott,Norfolk,1850-1880
R:Hornpipe
O:England
A:Norfolk
N:First bar written gfge in MS - transcribed as afge to match fifth bar
Z:vmp.Taz Tarry
K:D
(fg)|afge dfed|cdec A3 G|FAdf gfed|(ce)AA A2 (fg)|!
afge dfed|cdec A3 G|FAdf gecA|d2d2d2:|!
|:(cd)|(eA)AA (fA)AA|gAAA A3f|(gf)ed (dc)BA|GBBB B3A|!
Fddd Aeee|(df)ff (eg)gg|(fg)af (bg)ec|d2d2d2:|
